public/assets/images/shapes/funny1.svg

<svg xmlns="http://www.w3.org/2000/svg" width="375" height="87" viewBox="0 0 375 87">
  <path fill="#FCCDD3" fill-rule="evenodd" d="M288.544386,31.5146687 C251.512439,34.5609132 214.240835,32.7432262 177.143055,33.7150875 C136.735118,34.7730923 95.4707676,40.0284278 58.5167818,57.3531125 C47.3268116,62.5991976 36.65196,68.8928811 25.3488023,73.9053958 C19.8020374,76.3648234 13.9792336,78.7699055 8.03457994,80.0799814 C7.09327574,80.2875353 2.87473147,81.5224525 -2.84217094e-14,82 L-2.84217094e-14,86.0680391 L375,86.0680391 L375,5.61328761e-13 C369.814165,4.67950336 362.119147,10.0816876 350.745536,16.091502 C331.650921,26.1807055 309.83634,29.7634683 288.544386,31.5146687 Z"/>
</svg>

<svg xmlns="http://www.w3.org/2000/svg" width="375" height="87"><path fill="#FCCDD3" fill-rule="evenodd" d="M288.544 31.515c-37.032 3.046-74.303 1.228-111.4 2.2-40.409 1.058-81.673 6.313-118.627 23.638-11.19 5.246-21.865 11.54-33.168 16.552-5.547 2.46-11.37 4.865-17.314 6.175-.942.208-5.16 1.442-8.035 1.92v4.068h375V0c-5.186 4.68-12.88 10.082-24.254 16.092-19.095 10.089-40.91 13.671-62.202 15.423Z"/></svg>
